X: 38159
T: Sporting Paddy
R: reel
M: 4/4
K: Gmajor
EAAB GABG|EAAB G2ED|EAAB GABd|edge dBAG|
EAAB GABG|EAAB G2ED|EAAB GABd|edge d2ef||
geee gede|geee a2ba|geee ged2|efge d2ef|
ggfg edBd|geee a2ga|bgaf ged2|efge dBAG||

